X:2540
T:The Sailors Are All At The Bar
C:anon.
O:England
Z:C.G.P
F:http://abc.musicaviva.com/tunes/england/sailors-are-all-at-the-bar.abc
%Posted at abcusers Jan 2nd 2001 by Johnny Adams.
M:6/8
L:1/8
K:G
g|dBG GAB|cec B2G|cec dBG|FAA A2g|dBG GAB|
cec B2G|Bcd efg|dBG G2::g|bgb afa|gec B2G|
cec dBG|FAA A2g|bgb afa|gec B2G|Bcd efg|dBG G2:|
W:
W:
W:  From Musica Viva - http://www.musicaviva.com
W:  the Internet center for free sheet music downloads.

